Resources/Public/Icons/solid/clone.svg

<svg xmlns="http://www.w3.org/2000/svg" viewBox="0 0 512 512"><!--! Font Awesome Free 6.6.0 by @fontawesome - https://fontawesome.com License - https://fontawesome.com/license/free (Icons: CC BY 4.0, Fonts: SIL OFL 1.1, Code: MIT License) Copyright 2024 Fonticons, Inc. --><path d="M288 448L64 448l0-224 64 0 0-64-64 0c-35.3 0-64 28.7-64 64L0 448c0 35.3 28.7 64 64 64l224 0c35.3 0 64-28.7 64-64l0-64-64 0 0 64zm-64-96l224 0c35.3 0 64-28.7 64-64l0-224c0-35.3-28.7-64-64-64L224 0c-35.3 0-64 28.7-64 64l0 224c0 35.3 28.7 64 64 64z"/></svg>

<svg xmlns="http://www.w3.org/2000/svg" viewBox="0 0 512 512"><!--! Font Awesome Free 6.5.1 by @fontawesome - https://fontawesome.com License - https://fontawesome.com/license/free (Icons: CC BY 4.0, Fonts: SIL OFL 1.1, Code: MIT License) Copyright 2023 Fonticons, Inc. --><path d="M288 448H64V224h64V160H64c-35.3 0-64 28.7-64 64V448c0 35.3 28.7 64 64 64H288c35.3 0 64-28.7 64-64V384H288v64zm-64-96H448c35.3 0 64-28.7 64-64V64c0-35.3-28.7-64-64-64H224c-35.3 0-64 28.7-64 64V288c0 35.3 28.7 64 64 64z"/></svg>
